X: 1
T: The Battering Ram
R: jig
M: 6/8
L: 1/8
K: Dmaj
|: dBG BAG | dBG G2B | dBG AGE | GFD D2B |
dBG BAG | BdB BAG | AGA BAB | GED D2B :|
|: deg aga | bge edB | deg aga | bge ega |
bag age | ged ege | dAG AGE | GED D2B :|
|: B2G A2G | BGE DdC | BAG AGE | GED DdC |
B2G A2G | BdB BAG | AGA BAB | GED D3 :|


Tune 382	Setting 13208

